src/fretsonfire/data/neck.svg

<?xml version="1.0" encoding="UTF-8" standalone="no"?>
<!-- Created with Inkscape (http://www.inkscape.org/) -->

<svg
   version="1.0"
   width="251.82468"
   height="366.41891"
   id="svg2"
   sodipodi:version="0.32"
   inkscape:version="1.4 (e7c3feb100, 2024-10-09)"
   sodipodi:docname="neck.svg"
   inkscape:output_extension="org.inkscape.output.svg.inkscape"
   sodipodi:modified="true"
   xmlns:inkscape="http://www.inkscape.org/namespaces/inkscape"
   xmlns:sodipodi="http://sodipodi.sourceforge.net/DTD/sodipodi-0.dtd"
   xmlns:xlink="http://www.w3.org/1999/xlink"
   xmlns="http://www.w3.org/2000/svg"
   xmlns:svg="http://www.w3.org/2000/svg"
   xmlns:rdf="http://www.w3.org/1999/02/22-rdf-syntax-ns#"
   xmlns:cc="http://creativecommons.org/ns#"
   xmlns:dc="http://purl.org/dc/elements/1.1/">
  <metadata
     id="metadata3009">
    <rdf:RDF>
      <cc:Work
         rdf:about="">
        <dc:format>image/svg+xml</dc:format>
        <dc:type
           rdf:resource="http://purl.org/dc/dcmitype/StillImage" />
      </cc:Work>
    </rdf:RDF>
  </metadata>
  <sodipodi:namedview
     inkscape:window-height="761"
     inkscape:window-width="1239"
     inkscape:pageshadow="2"
     inkscape:pageopacity="0.0"
     borderopacity="1.0"
     bordercolor="#666666"
     pagecolor="#ffffff"
     id="base"
     inkscape:zoom="0.7107819"
     inkscape:cx="270.82851"
     inkscape:cy="99.889994"
     inkscape:window-x="671"
     inkscape:window-y="176"
     inkscape:current-layer="layer1"
     inkscape:showpageshadow="2"
     inkscape:pagecheckerboard="0"
     inkscape:deskcolor="#d1d1d1"
     inkscape:window-maximized="0" />
  <defs
     id="defs4">
    <linearGradient
       id="linearGradient3591">
      <stop
         style="stop-color:#000000;stop-opacity:0;"
         offset="0"
         id="stop3593" />
      <stop
         id="stop3599"
         offset="0.1021521"
         style="stop-color:#2a0000;stop-opacity:1;" />
      <stop
         style="stop-color:#440000;stop-opacity:1;"
         offset="0.8938309"
         id="stop3601" />
      <stop
         style="stop-color:#000000;stop-opacity:0;"
         offset="1"
         id="stop3595" />
    </linearGradient>
    <linearGradient
       id="linearGradient3016">
      <stop
         style="stop-color:#4b0000;stop-opacity:1;"
         offset="0"
         id="stop3018" />
      <stop
         id="stop3024"
         offset="0.5"
         style="stop-color:#840000;stop-opacity:1;" />
      <stop
         style="stop-color:#4b0000;stop-opacity:1;"
         offset="1"
         id="stop3020" />
    </linearGradient>
    <linearGradient
       inkscape:collect="always"
       xlink:href="#linearGradient3016"
       id="linearGradient3628"
       gradientUnits="userSpaceOnUse"
       gradientTransform="translate(-10.04059,46.9656)"
       x1="-196.5988"
       y1="-0.14184041"
       x2="198.1898"
       y2="-0.14184041" />
    <linearGradient
       inkscape:collect="always"
       xlink:href="#linearGradient3591"
       id="linearGradient3634"
       gradientUnits="userSpaceOnUse"
       gradientTransform="matrix(3.0257258,0,0,5.4091743,-63.584545,300.34828)"
       x1="-96.498459"
       y1="-27.276505"
       x2="112.41573"
       y2="-27.276505" />
  </defs>
  <g
     id="layer1"
     transform="matrix(0.398383,0,0,0.255506,141.65001,144.1669)">
    <path
       style="color:#000000;display:inline;overflow:visible;visibility:visible;fill:url(#linearGradient3634);fill-opacity:1;fill-rule:nonzero;stroke:none;stroke-width:10;stroke-linecap:butt;stroke-linejoin:round;stroke-miterlimit:4;stroke-dashoffset:0;stroke-opacity:1;marker:none;marker-start:none;marker-mid:none;marker-end:none"
       d="M -355.56239,-564.24076 H 276.55465 V 869.85053 h -632.11704 z"
       id="rect2620" />
    <g
       id="g3036"
       transform="matrix(0.9754363,0,0,1,-8.5040986,133.06924)">
      <path
         d="m -206.63939,73.35264 c 4.97487,-39.03605 13.03894,-76.19509 25.46875,-113.34375 42.0016,-85.7864 57.30253,-101.26372 101.0625,-185.8125 27.82733,-47.1477 76.30398,-144.48872 85.3125,-189.78125 5.87211,-35.14513 1.22523,-37.29071 23.91518,-41.16071 25.75403,1.24347 44.10353,2.66503 48.11888,9.10296 27.38473,51.95867 75.22521,81.88362 88.65362,192.1726 13.42841,110.28897 -9.58258,86.2281 -31.85487,33.09454 -30.58135,-23.10609 -83.69742,-29.6022 -117.8547,6.24334 -18.80133,35.49568 -27.5945,80.23053 -25.79061,120.07852 12.10478,105.10237 81.14365,188.52615 128.6875,279.125 21.14226,36.94228 48.3988,99.23102 61.86607,139.28124 8.64533,114.29893 25.07472,32.30173 -61.30357,-2.875 -43.27262,-4.63656 -96.72161,32.58971 -101.21429,77.90179 -5.42594,53.98768 11.08098,99.24647 38.65179,143.65179 10.86808,20.25518 3.54973,18.50752 -23.59375,17.94643 C 3.11693,563.81478 2.48192,549.75215 6.85615,529.7321 8.56991,480.10818 -42.03483,455.58025 -85.3001,458.62496 c -44.55646,11.43004 -74.67687,35.14422 -89.77679,100.97768 -8.14385,5.29594 -9.09206,-1.50954 -20.95535,0.067 0.29534,-32.75765 11.88714,-66.64383 23.99999,-96.47767 34.83432,-72.72716 75.08864,-140.87726 111.08929,-212.97323 23.61872,-41.71045 39.50518,-104.69072 32.36161,-153.0357 -17.06572,-50.86633 -87.85843,-68.00242 -146.39733,-1.08929 -9.82565,24.73537 -22.23992,32.42227 -31.66071,-22.74107 z m 17.82144,-541.36161 23.62945,1.42857 -11.42857,59.1384 z"
         style="fill:url(#linearGradient3628);fill-opacity:1"
         id="path2056" />
      <path
         d="M 233.73789,352.7678 C 228.81746,297.90709 210.02556,245.79581 193.89294,193.35509 181.5727,151.35196 153.38715,102.30551 144.35976,53.03148 c -9.0274,-49.27403 -2.96594,-102.22627 8.96859,-148.49779 11.93454,-46.27152 27.64804,-78.94773 25.10579,-119.95175 2.44484,-48.83362 -37.94178,-133.68147 -44.5176,-150.4194 -6.81822,-17.35494 40.85346,-108.88827 11.51831,-98.19271 -33.60306,-9.26063 -21.14588,42.79858 -31.62812,62.61183 -17.14456,-10.1482 -42.42312,-88.25275 -57.21288,-54.59845 16.0456,28.35078 66.54597,76.07219 45.00012,110.47747 -15.81978,28.03566 -29.03623,72.78847 -38.65741,90.82427 -45.85109,7.15035 -60.64281,57.54321 -72.72155,93.48284 -16.623,84.26195 19.73106,168.24908 63.19346,238.66919 42.38157,68.67624 88.20669,137.05921 109.91986,215.66894 5.75101,14.57789 25.78938,86.01469 2.26317,40.41059 C 145.89767,296.9814 95.35213,302.33772 64.39638,319.71579 27.45429,338.88021 5.46118,380.30658 11.50777,421.70824 10.97281,469.66919 38.42409,511.72121 58.22226,553.66061 105.95291,576.94222 48.04024,514.19365 45.63301,492.93586 27.90389,455.89107 17.12254,409.32948 33.72227,370.48502 c 17.57713,-32.66961 58.15352,-53.36695 94.6477,-45.59365 37.89713,14.99506 39.27485,60.33352 35.72337,94.74342 -2.76508,47.06379 -26.9877,88.40457 -40.37107,132.78823 29.88256,29.9216 37.32991,-17.8089 47.00004,-41.26477 11.66802,-39.01009 26.9224,-78.01229 23.65493,-119.56547 C 196.99688,327.08157 173.51165,265.49562 148.45667,207.22067 103.04296,106.96999 20.71694,22.79043 2.21521,-88.73221 c -5.3949,-38.56003 2.5281,-83.04023 14.85862,-106.37274 12.63587,-23.91028 26.28482,-38.31976 42.37188,-45.06166 -3.19866,12.18668 -20.48655,143.13959 -17.40886,157.78038 7.35136,-44.44789 29.59235,-149.53308 37.8071,-158.07512 26.3947,2.6012 61.94871,20.9962 62.84972,49.5542 1.81682,62.82781 -31.19426,98.68652 -27.6742,184.48644 3.52007,87.2285 53.2945,180.52575 86.05144,269.18851 21.77679,60.00053 25.49782,124.34403 28.82034,187.50563 2.66831,-31.56111 3.48847,-65.45783 3.84664,-97.50563 z m -74.44135,-545.75001 c -5.45976,-25.04804 -39.58738,-59.02215 -75.51184,-62.13794 10.85058,-22.26675 28.37895,-60.51551 39.11103,-86.95755 16.7843,34.60853 38.96415,67.45349 37.53786,108.59314 -0.10922,13.50151 0.0625,27.03998 -1.13705,40.50235 z M 5.90069,-461.94649 c -10.26537,-5.83363 -5.58117,75.63443 -24.3608,105.80803 -18.77963,30.1736 -29.57925,71.89063 -44.94939,94.94969 -15.37014,23.05907 -36.72058,86.19587 -51.02404,34.97137 -22.58922,-59.05948 -48.31836,-119.72219 -43.25978,-184.55286 0.77658,-7.28041 -1.65688,-44.69993 -2.42236,-52.87902 -0.78209,-8.3566 -2.15392,-10.88947 -12.34034,-3.40436 -3.40345,26.58397 -13.89148,16.80094 -9.45185,-2.75 -12.66137,-6.10109 -14.20872,-0.40072 -16.84936,7.65991 -5.79488,17.68911 7.35597,75.89907 8.98235,98.91152 5.89531,65.54731 46.26098,121.08738 62.49382,184 7.01121,38.95056 -35.18525,72.93712 -47.75848,109.96875 -12.57324,37.03163 -22.86586,63.53072 -31.8461,110.53125 -8.98025,47.00053 0.98163,107.83223 -1.02253,169.91635 -2.00415,62.08412 3.81808,135.41035 -6.15814,202.25127 -8.21888,38.44907 -20.00855,75.85793 -30.97825,113.76188 -18.39346,36.03217 7.94619,56.37501 17.378,12.5705 18.95044,-65.60668 39.54562,-140.2472 43.9641,-201.82148 4.41847,-61.57429 5.40383,-113.84174 5.66088,-160.7077 0.25705,-46.86596 2.87439,-87.80647 40.87669,-109.16349 27.559,13.5538 19.59317,70.46991 23.77306,101.69267 -1.92389,25.44805 5.61845,28.38437 7.26962,0.92249 8.9324,-36.71975 -1.22671,-75.06174 3.56324,-112.00839 34.88338,-13.94164 68.25202,20.24137 69.93612,54.24489 5.12586,44.56272 -8.36023,87.69551 -29.7063,126.3343 -35.01115,69.936 -72.11024,138.41117 -107.63258,208.03842 -14.77091,34.05362 -28.43566,68.92832 -30.4918,106.46829 18.33957,28.25645 16.47017,-20.46763 22.2438,-37.70546 14.73765,-72.87011 62.97177,-132.18741 93.13179,-198.73203 26.59648,-51.33973 58.21132,-101.81871 65.9423,-160.21273 2.69979,-36.63893 3.39207,-84.77661 -29.58027,-108.66067 -35.63647,-20.62697 -83.30802,-10.2584 -112.19403,16.86154 -10.93419,14.47485 -36.0832,68.62096 -38.24435,20.94935 3.03994,-64.32196 26.82836,-125.05502 55.32444,-181.9794 18.96643,-38.68525 44.9205,-73.64582 65.84705,-111.38371 35.52433,-53.31844 59.19504,-112.68001 88.42432,-169.27706 3.91275,-15.0705 16.64069,-110.23565 -4.54083,-85.57411 z m 8.90235,977.71428 c -4.43762,-38.65703 -40.61348,-70.12781 -79.95276,-66.65884 -55.14714,-5.2046 -101.63901,43.68502 -108.36649,97.01598 -7.63617,49.26218 15.04786,8.9389 19.30906,-25.46732 14.34089,-46.1041 69.14252,-67.14527 113.04188,-51.47972 37.38793,9.52298 44.2799,51.74073 41.88753,84.5899 25.31737,30.51509 14.11666,-23.00211 14.08077,-38 z m -253.50583,-989.85714 c -26.52272,2.15283 -8.91982,71.12784 -12.56429,101.54111 -3.66079,30.54941 1.12378,106.97211 11.55456,147.5677 4.00636,-35.48103 -2.3197,-60.44391 0.52831,-91.25167 2.84801,-30.80775 1.96074,-104.31271 10.44985,-147.14286 -3.32281,0 -3.78847,-10.71428 -9.96843,-10.71428 z"
         style="fill:#590000;fill-opacity:1;stroke:none"
         id="path2058" />
    </g>
  </g>
</svg>

<?xml version="1.0" encoding="UTF-8" standalone="no"?>
<!-- Created with Inkscape (http://www.inkscape.org/) -->
<svg
   xmlns:dc="http://purl.org/dc/elements/1.1/"
   xmlns:cc="http://web.resource.org/cc/"
   xmlns:rdf="http://www.w3.org/1999/02/22-rdf-syntax-ns#"
   xmlns:svg="http://www.w3.org/2000/svg"
   xmlns="http://www.w3.org/2000/svg"
   xmlns:xlink="http://www.w3.org/1999/xlink"
   xmlns:sodipodi="http://sodipodi.sourceforge.net/DTD/sodipodi-0.dtd"
   xmlns:inkscape="http://www.inkscape.org/namespaces/inkscape"
   version="1.0"
   width="744.09448"
   height="1052.3622"
   id="svg2"
   sodipodi:version="0.32"
   inkscape:version="0.45"
   sodipodi:docname="neck.svg"
   sodipodi:docbase="/home/skyostil/proj/keyboardhero/trunk/data"
   inkscape:output_extension="org.inkscape.output.svg.inkscape"
   sodipodi:modified="true">
  <metadata
     id="metadata3009">
    <rdf:RDF>
      <cc:Work
         rdf:about="">
        <dc:format>image/svg+xml</dc:format>
        <dc:type
           rdf:resource="http://purl.org/dc/dcmitype/StillImage" />
      </cc:Work>
    </rdf:RDF>
  </metadata>
  <sodipodi:namedview
     inkscape:window-height="753"
     inkscape:window-width="903"
     inkscape:pageshadow="2"
     inkscape:pageopacity="0.0"
     borderopacity="1.0"
     bordercolor="#666666"
     pagecolor="#ffffff"
     id="base"
     inkscape:zoom="1.4215638"
     inkscape:cx="125.2758"
     inkscape:cy="1073.0715"
     inkscape:window-x="1808"
     inkscape:window-y="176"
     inkscape:current-layer="layer1" />
  <defs
     id="defs4">
    <linearGradient
       id="linearGradient3591">
      <stop
         style="stop-color:#000000;stop-opacity:0;"
         offset="0"
         id="stop3593" />
      <stop
         id="stop3599"
         offset="0.1021521"
         style="stop-color:#2a0000;stop-opacity:1;" />
      <stop
         style="stop-color:#440000;stop-opacity:1;"
         offset="0.8938309"
         id="stop3601" />
      <stop
         style="stop-color:#000000;stop-opacity:0;"
         offset="1"
         id="stop3595" />
    </linearGradient>
    <linearGradient
       id="linearGradient3016">
      <stop
         style="stop-color:#4b0000;stop-opacity:1;"
         offset="0"
         id="stop3018" />
      <stop
         id="stop3024"
         offset="0.5"
         style="stop-color:#840000;stop-opacity:1;" />
      <stop
         style="stop-color:#4b0000;stop-opacity:1;"
         offset="1"
         id="stop3020" />
    </linearGradient>
    <linearGradient
       inkscape:collect="always"
       xlink:href="#linearGradient3016"
       id="linearGradient3022"
       x1="-196.5988"
       y1="-0.14184041"
       x2="198.18981"
       y2="-0.14184041"
       gradientUnits="userSpaceOnUse" />
    <linearGradient
       inkscape:collect="always"
       xlink:href="#linearGradient3016"
       id="linearGradient3030"
       gradientUnits="userSpaceOnUse"
       x1="-196.5988"
       y1="-0.14184041"
       x2="198.18981"
       y2="-0.14184041" />
    <linearGradient
       inkscape:collect="always"
       xlink:href="#linearGradient3016"
       id="linearGradient3034"
       gradientUnits="userSpaceOnUse"
       x1="-196.5988"
       y1="-0.14184041"
       x2="198.18981"
       y2="-0.14184041"
       gradientTransform="translate(-10.04059,46.96560)" />
    <linearGradient
       inkscape:collect="always"
       xlink:href="#linearGradient3016"
       id="linearGradient3628"
       gradientUnits="userSpaceOnUse"
       gradientTransform="translate(-10.04059,46.9656)"
       x1="-196.5988"
       y1="-0.14184041"
       x2="198.18981"
       y2="-0.14184041" />
    <linearGradient
       inkscape:collect="always"
       xlink:href="#linearGradient3591"
       id="linearGradient3634"
       gradientUnits="userSpaceOnUse"
       gradientTransform="matrix(3.0257258,0,0,5.4091743,-63.584545,300.34828)"
       x1="-96.498459"
       y1="-27.276505"
       x2="112.41573"
       y2="-27.276505" />
  </defs>
  <g
     id="layer1"
     transform="matrix(0.398383,0.000000,0.000000,0.255506,12.04804,-49.43626)">
    <path
       style="color:#000000;fill:url(#linearGradient3634);fill-opacity:1;fill-rule:nonzero;stroke:none;stroke-width:10;stroke-linecap:butt;stroke-linejoin:round;marker:none;marker-start:none;marker-mid:none;marker-end:none;stroke-miterlimit:4;stroke-dashoffset:0;stroke-opacity:1;visibility:visible;display:inline;overflow:visible"
       d="M -355.56239,-564.24076 L 276.55465,-564.24076 L 276.55465,869.85053 L -355.56239,869.85053 L -355.56239,-564.24076 z "
       id="rect2620" />
    <g
       id="g3036"
       transform="matrix(0.9754363,0,0,1,-8.5040986,133.06924)">
      <path
         d="M -206.63939,73.35264 C -201.66452,34.31659 -193.60045,-2.84245 -181.17064,-39.99111 C -139.16904,-125.77751 -123.86811,-141.25483 -80.10814,-225.80361 C -52.28081,-272.95131 -3.80416,-370.29233 5.20436,-415.58486 C 11.07647,-450.72999 6.42959,-452.87557 29.11954,-456.74557 C 54.87357,-455.5021 73.22307,-454.08054 77.23842,-447.64261 C 104.62315,-395.68394 152.46363,-365.75899 165.89204,-255.47001 C 179.32045,-145.18104 156.30946,-169.24191 134.03717,-222.37547 C 103.45582,-245.48156 50.33975,-251.97767 16.18247,-216.13213 C -2.61886,-180.63645 -11.41203,-135.9016 -9.60814,-96.05361 C 2.49664,9.04876 71.53551,92.47254 119.07936,183.07139 C 140.22162,220.01367 167.47816,282.30241 180.94543,322.35263 C 189.59076,436.65156 206.02015,354.65436 119.64186,319.47763 C 76.36924,314.84107 22.92025,352.06734 18.42757,397.37942 C 13.00163,451.3671 29.50855,496.62589 57.07936,541.03121 C 67.94744,561.28639 60.62909,559.53873 33.48561,558.97764 C 3.11693,563.81478 2.48192,549.75215 6.85615,529.7321 C 8.56991,480.10818 -42.03483,455.58025 -85.3001,458.62496 C -129.85656,470.055 -159.97697,493.76918 -175.07689,559.60264 C -183.22074,564.89858 -184.16895,558.0931 -196.03224,559.6696 C -195.7369,526.91195 -184.1451,493.02577 -172.03225,463.19193 C -137.19793,390.46477 -96.94361,322.31467 -60.94296,250.2187 C -37.32424,208.50825 -21.43778,145.52798 -28.58135,97.183 C -45.64707,46.31667 -116.43978,29.18058 -174.97868,96.09371 C -184.80433,120.82908 -197.2186,128.51598 -206.63939,73.35264 z M -188.81795,-468.00897 L -165.1885,-466.5804 L -176.61707,-407.442 L -188.81795,-468.00897 z "
         style="fill:url(#linearGradient3628);fill-opacity:1"
         id="path2056" />
      <path
         d="M 233.73789,352.7678 C 228.81746,297.90709 210.02556,245.79581 193.89294,193.35509 C 181.5727,151.35196 153.38715,102.30551 144.35976,53.03148 C 135.33236,3.75745 141.39382,-49.19479 153.32835,-95.46631 C 165.26289,-141.73783 180.97639,-174.41404 178.43414,-215.41806 C 180.87898,-264.25168 140.49236,-349.09953 133.91654,-365.83746 C 127.09832,-383.1924 174.77,-474.72573 145.43485,-464.03017 C 111.83179,-473.2908 124.28897,-421.23159 113.80673,-401.41834 C 96.66217,-411.56654 71.38361,-489.67109 56.59385,-456.01679 C 72.63945,-427.66601 123.13982,-379.9446 101.59397,-345.53932 C 85.77419,-317.50366 72.55774,-272.75085 62.93656,-254.71505 C 17.08547,-247.5647 2.29375,-197.17184 -9.78499,-161.23221 C -26.40799,-76.97026 9.94607,7.01687 53.40847,77.43698 C 95.79004,146.11322 141.61516,214.49619 163.32833,293.10592 C 169.07934,307.68381 189.11771,379.12061 165.5915,333.51651 C 145.89767,296.9814 95.35213,302.33772 64.39638,319.71579 C 27.45429,338.88021 5.46118,380.30658 11.50777,421.70824 C 10.97281,469.66919 38.42409,511.72121 58.22226,553.66061 C 105.95291,576.94222 48.04024,514.19365 45.63301,492.93586 C 27.90389,455.89107 17.12254,409.32948 33.72227,370.48502 C 51.2994,337.81541 91.87579,317.11807 128.36997,324.89137 C 166.2671,339.88643 167.64482,385.22489 164.09334,419.63479 C 161.32826,466.69858 137.10564,508.03936 123.72227,552.42302 C 153.60483,582.34462 161.05218,534.61412 170.72231,511.15825 C 182.39033,472.14816 197.64471,433.14596 194.37724,391.59278 C 196.99688,327.08157 173.51165,265.49562 148.45667,207.22067 C 103.04296,106.96999 20.71694,22.79043 2.21521,-88.73221 C -3.17969,-127.29224 4.74331,-171.77244 17.07383,-195.10495 C 29.7097,-219.01523 43.35865,-233.42471 59.44571,-240.16661 C 56.24705,-227.97993 38.95916,-97.02702 42.03685,-82.38623 C 49.38821,-126.83412 71.6292,-231.91931 79.84395,-240.46135 C 106.23865,-237.86015 141.79266,-219.46515 142.69367,-190.90715 C 144.51049,-128.07934 111.49941,-92.22063 115.01947,-6.42071 C 118.53954,80.80779 168.31397,174.10504 201.07091,262.7678 C 222.8477,322.76833 226.56873,387.11183 229.89125,450.27343 C 232.55956,418.71232 233.37972,384.8156 233.73789,352.7678 z M 159.29654,-192.98221 C 153.83678,-218.03025 119.70916,-252.00436 83.7847,-255.12015 C 94.63528,-277.3869 112.16365,-315.63566 122.89573,-342.0777 C 139.68003,-307.46917 161.85988,-274.62421 160.43359,-233.48456 C 160.32437,-219.98305 160.49606,-206.44458 159.29654,-192.98221 z M 5.90069,-461.94649 C -4.36468,-467.78012 0.31952,-386.31206 -18.46011,-356.13846 C -37.23974,-325.96486 -48.03936,-284.24783 -63.4095,-261.18877 C -78.77964,-238.1297 -100.13008,-174.9929 -114.43354,-226.2174 C -137.02276,-285.27688 -162.7519,-345.93959 -157.69332,-410.77026 C -156.91674,-418.05067 -159.3502,-455.47019 -160.11568,-463.64928 C -160.89777,-472.00588 -162.2696,-474.53875 -172.45602,-467.05364 C -175.85947,-440.46967 -186.3475,-450.2527 -181.90787,-469.80364 C -194.56924,-475.90473 -196.11659,-470.20436 -198.75723,-462.14373 C -204.55211,-444.45462 -191.40126,-386.24466 -189.77488,-363.23221 C -183.87957,-297.6849 -143.5139,-242.14483 -127.28106,-179.23221 C -120.26985,-140.28165 -162.46631,-106.29509 -175.03954,-69.26346 C -187.61278,-32.23183 -197.9054,-5.73274 -206.88564,41.26779 C -215.86589,88.26832 -205.90401,149.10002 -207.90817,211.18414 C -209.91232,273.26826 -204.09009,346.59449 -214.06631,413.43541 C -222.28519,451.88448 -234.07486,489.29334 -245.04456,527.19729 C -263.43802,563.22946 -237.09837,583.5723 -227.66656,539.76779 C -208.71612,474.16111 -188.12094,399.52059 -183.70246,337.94631 C -179.28399,276.37202 -178.29863,224.10457 -178.04158,177.23861 C -177.78453,130.37265 -175.16719,89.43214 -137.16489,68.07512 C -109.60589,81.62892 -117.57172,138.54503 -113.39183,169.76779 C -115.31572,195.21584 -107.77338,198.15216 -106.12221,170.69028 C -97.18981,133.97053 -107.34892,95.62854 -102.55897,58.68189 C -67.67559,44.74025 -34.30695,78.92326 -32.62285,112.92678 C -27.49699,157.4895 -40.98308,200.62229 -62.32915,239.26108 C -97.3403,309.19708 -134.43939,377.67225 -169.96173,447.2995 C -184.73264,481.35312 -198.39739,516.22782 -200.45353,553.76779 C -182.11396,582.02424 -183.98336,533.30016 -178.20973,516.06233 C -163.47208,443.19222 -115.23796,383.87492 -85.07794,317.3303 C -58.48146,265.99057 -26.86662,215.51159 -19.13564,157.11757 C -16.43585,120.47864 -15.74357,72.34096 -48.71591,48.4569 C -84.35238,27.82993 -132.02393,38.1985 -160.90994,65.31844 C -171.84413,79.79329 -196.99314,133.9394 -199.15429,86.26779 C -196.11435,21.94583 -172.32593,-38.78723 -143.82985,-95.71161 C -124.86342,-134.39686 -98.90935,-169.35743 -77.9828,-207.09532 C -42.45847,-260.41376 -18.78776,-319.77533 10.44152,-376.37238 C 14.35427,-391.44288 27.08221,-486.60803 5.90069,-461.94649 z M 14.80304,515.76779 C 10.36542,477.11076 -25.81044,445.63998 -65.14972,449.10895 C -120.29686,443.90435 -166.78873,492.79397 -173.51621,546.12493 C -181.15238,595.38711 -158.46835,555.06383 -154.20715,520.65761 C -139.86626,474.55351 -85.06463,453.51234 -41.16527,469.17789 C -3.77734,478.70087 3.11463,520.91862 0.72226,553.76779 C 26.03963,584.28288 14.83892,530.76568 14.80303,515.76779 L 14.80304,515.76779 z M -238.70279,-474.08935 C -265.22551,-471.93652 -247.62261,-402.96151 -251.26708,-372.54824 C -254.92787,-341.99883 -250.1433,-265.57613 -239.71252,-224.98054 C -235.70616,-260.46157 -242.03222,-285.42445 -239.18421,-316.23221 C -236.3362,-347.03996 -237.22347,-420.54492 -228.73436,-463.37507 C -232.05717,-463.37507 -232.52283,-474.08935 -238.70279,-474.08935 z "
         style="fill:#590000;fill-opacity:1;stroke:none"
         id="path2058" />
    </g>
  </g>
</svg>
